X: 335
T:Lugh Baylberhoy Rsues
% Nottingham Music Database
S:Trad, arr Phil Rowe
M:6/8
K:G
d/2e/2|"G"g2b gag|"G"bdd "A7"cBA|"G"BBG GFG|"D7"DGF "D7"AGFD\
"C"GAc "D7"A2A|"Am"c2e "D#m"a2f|"D"fge A2d|"G"g3 gfg|"D"fgd d2F|"Em"eAB A2:|


